X:1
T:Title
%%score ( 1 2 ) { 3 | 4 }
L:1/8
Q:1/4=130
M:6/4
K:D
V:1 treble nm="Grand Piano, Soprano"
V:2 treble 
V:3 bass nm="Choir Pad, Aydın, SMD"
V:4 bass 
V:1
 [DF]3 E D2 [DF]4 [CE]2 | D6- D3- D/ z/ [DE]2 | [DF]4 [DG]2 [DA]4 GF | [CE]12 | %4
w: By~Anonymous * * * *||||
 [DF]3 E D2 [DF]4 [CE]2 | D4 [DE]2 F4 ^G2 | [EA]3 [EB] [Ec]2 [Ec]4 [DB]2 | [CA]12 | %8
w: ||||
 [DA]3 [DG] [DF]2 [DB]4 [DA]2 | [CG]6- [CG]3- [CG]/ z/ [CG]2 | [CG]4 [CG]2 A2- [DA]2 [EG]2 | %11
w: |||
 [DF]12 | [DF]3 E D2 [DF]4 [CE]2 | D4 [DG]2 [GB]4 [Ac]2 | [Ad]4 [Ac][GB] [FA]4 C2 | D12 |] %16
w: |||||
V:2
 x12 | x12 | z6 z4 D2 | x12 | x12 | z6 D6 | x12 | x12 | x12 | x12 | z6 .C6 | x12 | x12 | x12 | %14
 x12 | x12 |] %16
V:3
 A,3 G, F,2 A,4 G,2 | F,6- F,3- F,/ z/ G,2 | A,4 A,2 A,4 B,2 | A,12 | A,3 G, F,2 A,4 G,2 | %5
 F,4 G,2 A,4 B,2 | A,3 A, A,2 A,4 ^G,2 | A,4 G,2 A,4 G,2 | F,3 G, A,2 G,4 F,2 | %9
 A,6- A,3- A,/ z/ A,2 | A,4 A,2 B,4 A,2 | A,12 | A,3 G, F,2 A,4 G,2 | G,4 B,2 D4 E2 | %14
 D4 D2 D4 A,G, | F,12 |] %16
V:4
 D,3 D, D,2 D,4 D,2 | D,6- D,3- D,/ z/ D,2 | D,4 E,2 F,4 G,2 | z12 | D,3 D, D,2 D,4 D,2 | %5
 D,4 D,2 F,4 B,,2 | C,3 B,, A,,2 E,4 E,2 | z6 F,4 E,2 | D,3 D, D,2 z6 | E,4 D,2 C,4 B,,2 | %10
 A,,4 A,,2 A,,2 B,,2 C,2 | D,12 | D,3 D, D,2 D,4 ^A,,2 | B,,4 B,,2 G,,4 G,,2 | %14
 F,,4 F,,2 F,,4 A,,2 | D,12 |] %16

